X:164
T:Celebrated Waltz,The.2voices. JaW.164
M:3/4
L:1/8
Q:3/4=50
C:”This is supposed to be the best composition out”
S:James Winder Ms, Lancashire, 1835-41
R:.Waltz
O:England
Z:vmp.Chris Partington, Aug 2004
K:C
[V:1]|:g>e| c2c2(d>B)|G2G2(f>d)|B2B2B2|c2z2(c’b)|!
[V:2]|:z2|E2G2z2|B2G2z2|G2F2z2|E2z2ag|!
%
[V:1]ag^fedc|Bdgdec|(B/A/B/c/) dB cA|G4:|!
[V:2]^fedcBA|G2B2cA|(G/^F/G/A/) BG AF|G4:|!
%
[V:1]|:f>d|B2B2g>e|c2c2ac|d2d2^d2|He4g2|!
[V:2]|:z2|F2F2z2|E2E2z2|F2F2F2|HE4g2|!
%
[V:1]{^fga}g4e2|(c’bagfe)|.d(fedcB)|c4:|!
[V:2]e4c2|(agfedc)|F2F2G2|E4:|!
%
[V:1]|:”^dolce”G2|(e4c2)|B2d2G2|(g4e2)|c4G2|\
e4c2|(A2f2)d2|B2A2B2|c4:|!
[V:2]|:z2|z4G2|f4d2|cez2G2|egz2e2|c4c2|F4F2|G4G2|E4:|!
%
[V:1]|:g2|.e.g.c.g.e.g|.f.g.d.g.f.g|.e.g.c.g.e.g|G4g2|!
[V:2]|:e2|c2G2c2|d2G2B2|c2G2c2|!
%
[V:1](eg_bgec)|(dfafed)|(cegfed)|c4:|!
[V:2]B4e2|c4E2|F4F2|G4GF|E4:|!
%
[V:1]|:d’2|b2g2c’2|c’2g2c’2|b2d’2b2|c’4a2|!
[V:2]|:e2|dBGBce|dBGBce|dBGBdf|e4c2|!
%
[V:1]^g2e2a2|g2e2a2|^g2b2g2|g4G2|!
[V:2]B^GBGAc|B^GEGAc|B^GEGBd|d4z2|!
%
[V:1]e4c2|B2d2G2|g4e2|c4G2|!
[V:2]z4G2|{G}f4d2|c2e2G2|e2g2e2|!
%
[V:1]{G}e4c2|A2f2d2|B2A2B2|c4:|
[V:2]c4E2|F4F2|G4GF|E4:|

